X: 49
T:Gan Ainm
M:4/4
L:1/8
S:Dermy Diamond, Belfast (fiddle)
R:Hornpipe
D:Session tape - Mullach, Clare 1985
Z:Bernie Stocks
K:G
B2dB c2Ac | BGGB d3c | B2dB c2Ac | dBcA BGGA | B2dB c2Ac | BGGB d3c |\
B2dB c2Ac |1 dBcA BGGA :|2 dBcA BGGg || fgaf gefd | cAAB c3g | fgaf gbag |\
fdcA BGGg | fgaf gefd | cAAB c3g | fgaf gbag | fdcA BGG2 :|
<end>
<start>
